images/social/instagram-colored.svg

<svg xmlns="http://www.w3.org/2000/svg" width="24" height="24" viewBox="0 0 24 24"><path d="M7.8 2h8.4C19.4 2 22 4.6 22 7.8v8.4a5.8 5.8 0 0 1-5.8 5.8H7.8C4.6 22 2 19.4 2 16.2V7.8A5.8 5.8 0 0 1 7.8 2m-.2 2A3.6 3.6 0 0 0 4 7.6v8.8C4 18.39 5.61 20 7.6 20h8.8a3.6 3.6 0 0 0 3.6-3.6V7.6C20 5.61 18.39 4 16.4 4H7.6m9.65 1.5a1.25 1.25 0 0 1 1.25 1.25A1.25 1.25 0 0 1 17.25 8 1.25 1.25 0 0 1 16 6.75a1.25 1.25 0 0 1 1.25-1.25M12 7a5 5 0 0 1 5 5 5 5 0 0 1-5 5 5 5 0 0 1-5-5 5 5 0 0 1 5-5m0 2a3 3 0 0 0-3 3 3 3 0 0 0 3 3 3 3 0 0 0 3-3 3 3 0 0 0-3-3z" fill="#e95950"/></svg>

<?xml version="1.0" encoding="UTF-8"?><!DOCTYPE svg PUBLIC "-//W3C//DTD SVG 1.1//EN"
  "http://www.w3.org/Graphics/SVG/1.1/DTD/svg11.dtd">
<svg xmlns="http://www.w3.org/2000/svg" xmlns:xlink="http://www.w3.org/1999/xlink" version="1.1" width="24" height="24"
     viewBox="0 0 24 24">
  <path style="fill:#e95950"
        d="M7.8,2H16.2C19.4,2 22,4.6 22,7.8V16.2A5.8,5.8 0 0,1 16.2,22H7.8C4.6,22 2,19.4 2,16.2V7.8A5.8,5.8 0 0,1 7.8,2M7.6,4A3.6,3.6 0 0,0 4,7.6V16.4C4,18.39 5.61,20 7.6,20H16.4A3.6,3.6 0 0,0 20,16.4V7.6C20,5.61 18.39,4 16.4,4H7.6M17.25,5.5A1.25,1.25 0 0,1 18.5,6.75A1.25,1.25 0 0,1 17.25,8A1.25,1.25 0 0,1 16,6.75A1.25,1.25 0 0,1 17.25,5.5M12,7A5,5 0 0,1 17,12A5,5 0 0,1 12,17A5,5 0 0,1 7,12A5,5 0 0,1 12,7M12,9A3,3 0 0,0 9,12A3,3 0 0,0 12,15A3,3 0 0,0 15,12A3,3 0 0,0 12,9Z"/>
</svg>
